!!!COM:	de Orto, Marbrianus
!!!CDT:	~1460///-1529//
!!!OPR:	Missa Mi mi (Missa Petite camusette)
!!!ONM:	2
!!!OTL:	Gloria
!!!AGN:	Mass; Gloria
!!!SCT:	Ort1005b
!!!SCA:	Ort1005b
!!!voices-OPR:	4
!!!voices:	4
**kern	**silbe	**kern	**silbe	**kern	**silbe	**kern	**silbe
*staff4	*staff4	*staff3	*staff3	*staff2	*staff2	*staff1	*staff1
*Ivox	*	*Ivox	*	*Ivox	*	*Ivox	*
*I"Bassus	*	*I"Tenor	*	*I"Altus	*	*I"Superius	*
*I'B	*	*I'T	*	*I'A	*	*I'S	*
*>[A,B,C,D,E]	*>[A,B,C,D,E]	*>[A,B,C,D,E]	*>[A,B,C,D,E]	*>[A,B,C,D,E]	*>[A,B,C,D,E]	*>[A,B,C,D,E]	*>[A,B,C,D,E]
*>A	*>A	*>A	*>A	*>A	*>A	*>A	*>A
*clefF4	*	*clefGv2	*	*clefGv2	*	*clefG2	*
*k[]	*	*k[]	*	*k[]	*	*k[]	*
*M2/1	*	*M2/1	*	*M2/1	*	*M2/1	*
*met(C)	*	*met(C)	*	*met(C)	*	*met(C)	*
!!section: Et in terra pax
!!!OMD: Et in terra pax
=1-	=1-	=1-	=1-	=1-	=1-	=1-	=1-
0r	.	0r	.	1.E	Et	0r	.
.	.	.	.	2F/	in	.	.
=2	=2	=2	=2	=2	=2	=2	=2
1r	.	0r	.	1G	ter-	1.e	Et
1AA	Et	.	.	1A	-ra	.	.
.	.	.	.	.	.	2f/	in
=3	=3	=3	=3	=3	=3	=3	=3
1E	in	0r	.	1E	pax	1g	ter-
1F	ter-	.	.	1c	ho-	1a	-ra
=4	=4	=4	=4	=4	=4	=4	=4
1F	-ra	0r	.	1d	-mi-	1a	pax
1E	pax	.	.	1e	.	1g	ho-
=5	=5	=5	=5	=5	=5	=5	=5
2D\	ho-	0r	.	1f	.	2a/	-mi-
2.A\	-mi-	.	.	.	.	1cc	.
.	.	.	.	2e\	.	.	.
4G\	-ni-	.	.	.	.	.	.
2E\	-bus,	.	.	[2e\	.	2b\	-ni-
=6	=6	=6	=6	=6	=6	=6	=6
1F	bo-	0r	.	2e\]	.	1a	-bus,
.	.	.	.	2d\	-ni-	.	.
2E\	.	.	.	2e\	-bus,	2r	.
2F\	-ne	.	.	2c\	bo-	2a/	bo-
=7	=7	=7	=7	=7	=7	=7	=7
1D	vo-	0r	.	1f	-ne	1a	-ne
2E\	-lun-	.	.	2e\	vo-	2g/	vo-
[2F\	-ta-	.	.	[2c\	.	[2a/	.
=8	=8	=8	=8	=8	=8	=8	=8
2F\]	.	0r	.	4c\]	.	4a/]	.
.	.	.	.	4B\	.	4g/	.
2G\	.	.	.	2G/	.	2e/	.
1D	-tis.	.	.	1A	.	1f	.
=9	=9	=9	=9	=9	=9	=9	=9
2r	.	0r	.	2E/	.	2e/	-lun-
2C/	Lau-	.	.	2G/	-lun-	1e	-ta-
1D	-da-	.	.	1F	-ta-	.	.
.	.	.	.	.	.	2d/	.
=10	=10	=10	=10	=10	=10	=10	=10
1C	-mus	1G	Lau-	1E	-tis.	1e	-tis.
1AA	te.	1A	-da-	1c	Lau-	1r	.
=11	=11	=11	=11	=11	=11	=11	=11
1r	.	1G	-mus	1d	-da-	1r	.
2C/	Be-	1E	te.	1c	.	1g	Lau-
2C/	-ne-	.	.	.	.	.	.
=12	=12	=12	=12	=12	=12	=12	=12
1F	-di-	0r	.	2A/	.	1a	-da-
.	.	.	.	1c	.	.	.
1E	-ci-	.	.	.	.	1g	-mus
.	.	.	.	2B\	-mus	.	.
=13	=13	=13	=13	=13	=13	=13	=13
1C	-mus	1G	Be-	1c	te.	2.e/	te.
.	.	.	.	.	.	4c/	.
1BB	.	2G/	-ne-	1r	.	1d	.
.	.	2G/	-di-	.	.	.	.
=14	=14	=14	=14	=14	=14	=14	=14
1AA	te.	2A/	-ci-	2e\	Be-	2c/	.
.	.	1A	-mus	2e\	-ne-	2.cc\	Be-
1r	.	.	.	2c\	-di-	.	.
.	.	.	.	.	.	4a/	.
.	.	4G/	.	2d\	-ci-	[2a/	.
.	.	4F/	.	.	.	.	.
=15	=15	=15	=15	=15	=15	=15	=15
1r	.	1E	te.	1B	-mus	2a/]	.
.	.	.	.	.	.	2g#i/	-ne-
1AA	A-	1r	.	1A	te.	2.a/	-di-
.	.	.	.	.	.	4gni/	.
=16	=16	=16	=16	=16	=16	=16	=16
1C	-do-	0r	.	2.G/	A-	2e/	.
.	.	.	.	.	.	2g/	-ci-
.	.	.	.	4A/	.	.	.
1D	-ra-	.	.	4B\	-do-	1f	-mus
.	.	.	.	4A/	.	.	.
.	.	.	.	2d\	-ra-	.	.
=17	=17	=17	=17	=17	=17	=17	=17
0E	-mus	2r	.	1B	-mus	1e	te.
.	.	2G/	A-	.	.	.	.
.	.	1G	-do-	1c	.	2r	.
.	.	.	.	.	.	[2g/	te.
=18	=18	=18	=18	=18	=18	=18	=18
1D	.	1A	-ra-	1d	te.	2g/]	.
.	.	.	.	.	.	2f#i/	.
1GG	te.	1G	-mus	2r	.	1g	.
.	.	.	.	2B\	Glo-	.	.
=19	=19	=19	=19	=19	=19	=19	=19
2AA/	Glo-	1E	te.	2c\	-ri-	0r	.
2.C/	-ri-	.	.	2A/	-fi-	.	.
.	.	1r	.	2G/	-ca-	.	.
4BB/	-fi-	.	.	.	.	.	.
[2E\	-ca-	.	.	[2c\	.	.	.
=20	=20	=20	=20	=20	=20	=20	=20
2E\]	.	0r	.	2c\]	.	1r	.
2C/	.	.	.	1A	.	.	.
1BB	-mus	.	.	.	.	2r	.
.	.	.	.	2G#i/	-mus	2d/	A-
=21	=21	=21	=21	=21	=21	=21	=21
1AA	te.	1r	.	1A	te.	2e/	-do-
.	.	.	.	.	.	2f/	-ra-
1r	.	2r	.	2B\	Glo-	1g	-mus
.	.	2E/	Glo-	[2c\	-ri-	.	.
=22	=22	=22	=22	=22	=22	=22	=22
0r	.	2F/	-ri-	2c\]	.	2a/	te.
.	.	2G/	-fi-	2B\	-fi-	2g/	Glo-
.	.	1A	-ca-	2.e\	-ca-	2.cc\	-ri-
.	.	.	.	4c\	.	8b/L	-fi-
.	.	.	.	.	.	8a/J	.
=23	=23	=23	=23	=23	=23	=23	=23
0r	.	2G/	-mus	2d\	.	2b\	-ca-
.	.	2F/	.	2A/	.	1a	.
.	.	1E	te.	1B	-mus	.	.
.	.	.	.	.	.	2g#i/	-mus
=24	=24	=24	=24	=24	=24	=24	=24
2.AA/	Gra-	0r	.	1A	te.	1a	te.
4BB/	.	.	.	.	.	.	.
1C	-ti-	.	.	2.E/	Gra-	1r	.
.	.	.	.	4F/	.	.	.
=25	=25	=25	=25	=25	=25	=25	=25
2.C/	-as	0r	.	2G/	-ti-	2.e/	Gra-
.	.	.	.	2A/	-as	.	.
4D\	.	.	.	.	.	4f/	.
2E\	.	.	.	2r	.	2g/	-ti-
2F\	a-	.	.	2A/	a-	2a/	-as
=26	=26	=26	=26	=26	=26	=26	=26
2E\	-gi-	0r	.	2G/	-gi-	2r	.
2F\	-mus	.	.	2A/	-mus	2a/	a-
2C/	ti-	.	.	2.c\	ti-	2g/	-gi-
[2F\	.	.	.	.	.	2a/	-mus
.	.	.	.	4B\	.	.	.
=27	=27	=27	=27	=27	=27	=27	=27
2F\]	.	0r	.	2A/	.	2.cc\	ti-
2E\	.	.	.	1e	.	.	.
.	.	.	.	.	.	4b\	.
1F	.	.	.	.	.	1a	.
.	.	.	.	2d\	.	.	.
=28	=28	=28	=28	=28	=28	=28	=28
1E	-bi,	2r	.	1e	-bi,	1g	-bi,
.	.	2.E/	Gra-	.	.	.	.
2.C/	ti-	.	.	1r	.	1r	.
.	.	4F/	.	.	.	.	.
.	.	2G/	-ti-	.	.	.	.
4BB/	.	.	.	.	.	.	.
=29	=29	=29	=29	=29	=29	=29	=29
4AA/	.	2A/	-as	0r	.	0r	.
4BB/	.	.	.	.	.	.	.
4C/	.	2A/	a-	.	.	.	.
4D\	.	.	.	.	.	.	.
2E\	.	2G/	-gi-	.	.	.	.
[2F\	.	2A/	-mus	.	.	.	.
=30	=30	=30	=30	=30	=30	=30	=30
4F\]	.	2.c\	ti-	0r	.	0r	.
4E\	.	.	.	.	.	.	.
2C/	.	.	.	.	.	.	.
.	.	4B\	.	.	.	.	.
2D\	.	1A	.	.	.	.	.
[2BB/	.	.	.	.	.	.	.
=31	=31	=31	=31	=31	=31	=31	=31
2BB/]	.	2G/	.	1r	.	1r	.
2AA/	-bi,	2A/	-bi,	.	.	.	.
2F\	prop-	2A/	prop-	2c\	prop-	2a/	prop-
2F\	-ter	2A/	-ter	2c\	-ter	2a/	-ter
=32	=32	=32	=32	=32	=32	=32	=32
2F\	ma-	2A/	ma-	2c\	ma-	2cc\	ma-
2C/	-gnam	2E/	-gnam	2e\	-gnam	2cc\	-gnam
2E\	glo-	2G/	glo-	2e\	glo-	2b\	glo-
2E\	-ri-	2G/	-ri-	2e\	-ri-	2b\	-ri-
=33	=33	=33	=33	=33	=33	=33	=33
1AA	-am	2.A/	-am	2e\	-am	2a/	-am
.	.	.	.	2c\	tu-	2e/	tu-
.	.	4G/	.	.	.	.	.
2r	.	2E/	.	2B\	.	2.g/	.
2C/	tu-	[2G/	tu-	2c\	.	.	.
.	.	.	.	.	.	4f/	.
=34	=34	=34	=34	=34	=34	=34	=34
2BB/	.	2G/]	.	2d\	.	2d/	.
2AA/	.	2A/	.	2c\	.	1e	.
1D	-am,	1F	.	1A	.	.	.
.	.	.	.	.	.	2d/	.
=35	=35	=35	=35	=35	=35	=35	=35
2r	.	1E	-am,	2B\	.	1.e	.
2AA/	tu-	.	.	2c\	.	.	.
1C	.	2r	.	2.E/	.	.	.
.	.	2C/	tu-	.	.	4d/	.
.	.	.	.	4F/	.	4c/	.
=36	=36	=36	=36	=36	=36	=36	=36
0GG;l	-am,	0D;l	-am,	0G;l	-am,	0B;l	-am,
!!LO:LB:i:g=z
=37||	=37||	=37||	=37||	=37||	=37||	=37||	=37||
*>B	*>B	*>B	*>B	*>B	*>B	*>B	*>B
*clefF4	*	*clefGv2	*	*clefGv2	*	*clefG2	*
*k[]	*	*k[]	*	*k[]	*	*k[]	*
*M2/1	*	*M2/1	*	*M2/1	*	*M2/1	*
*met(C)	*	*met(C)	*	*met(C)	*	*met(C)	*
!!section: Domine deus rex celestis
!!!OMD: Domine deus rex celestis
0r	.	0r	.	1d	Do-	2r	.
.	.	.	.	.	.	1b	Do-
.	.	.	.	2d\	-mi-	.	.
.	.	.	.	[2d\	-ne	2b\	-mi-
=38	=38	=38	=38	=38	=38	=38	=38
0r	.	0r	.	2d\]	.	2b\	-ne
.	.	.	.	1e	De-	1cc	De-
.	.	.	.	4d\	.	4b\	.
.	.	.	.	4c\	.	4a/	.
=39	=39	=39	=39	=39	=39	=39	=39
1E	Do-	2r	.	1c	-us	1g	-us
.	.	1G	Do-	.	.	.	.
2E\	-mi-	.	.	1r	.	1r	.
[2E\	-ne	2G/	-mi-	.	.	.	.
=40	=40	=40	=40	=40	=40	=40	=40
2E\]	.	2G/	-ne	0r	.	0r	.
1F	De-	1A	De-	.	.	.	.
4E\	.	4G/	.	.	.	.	.
4D\	.	4F/	.	.	.	.	.
=41	=41	=41	=41	=41	=41	=41	=41
1C	-us	1E	-us	2r	.	1g	rex
.	.	.	.	2.c\	rex	.	.
1r	.	1r	.	.	.	2a/	.
.	.	.	.	4d\	ce-	.	.
.	.	.	.	[2e\	-le-	2g/	ce-
=42	=42	=42	=42	=42	=42	=42	=42
1r	.	1r	.	2e\]	.	1f	-le-
.	.	.	.	2d\	.	.	.
1C	rex	2G/	rex	1e	-stis,	1e	-stis,
.	.	[2A/	.	.	.	.	.
=43	=43	=43	=43	=43	=43	=43	=43
1C	ce-	4A/]	.	0r	.	0r	.
.	.	4G/	.	.	.	.	.
.	.	2E/	ce-	.	.	.	.
2D\	-le-	2F/	-le-	.	.	.	.
2C/	.	2E/	-stis,	.	.	.	.
=44	=44	=44	=44	=44	=44	=44	=44
1AA	-stis,	0r	.	1e	De-	1cc	De-
2.A\	De-	.	.	2.e\	-us	2.cc\	-us
4G\	.	.	.	8d\L	.	4b\	.
.	.	.	.	8c\J	.	.	.
=45	=45	=45	=45	=45	=45	=45	=45
2F\	.	2r	.	2d\	.	2a/	.
2E\	-us	1c	De-	2e\	.	2g/	.
1D	Pa-	.	.	2f\	Pa-	2a/	Pa-
.	.	2B\	-us	2d\	.	4g/	.
.	.	.	.	.	.	4f/	.
=46	=46	=46	=46	=46	=46	=46	=46
1C	-ter	2.c\	Pa-	2G/	-ter	1e	-ter
.	.	.	.	4r	.	.	.
.	.	4B\	.	4G/	om-	.	.
1r	.	4A/	.	4c\	-ni-	1r	.
.	.	4G/	.	4B\	.	.	.
.	.	4A/	.	4c\	.	.	.
.	.	4F/	.	4d\	.	.	.
=47	=47	=47	=47	=47	=47	=47	=47
1G	om-	1E	-ter	1e	.	1b	om-
2C/	-ni-	1e	om-	1g	.	2cc\	-ni-
2E\	.	.	.	.	.	[2b\	.
=48	=48	=48	=48	=48	=48	=48	=48
2F\	.	2c\	-ni-	1f	.	4b\]	.
.	.	.	.	.	.	4a/	.
2D\	.	2d\	.	.	.	1a	.
1E	-po-	1B	-po-	1e	-po-	.	.
.	.	.	.	.	.	2g#i/	-po-
=49	=49	=49	=49	=49	=49	=49	=49
!!Last notes displayed as breves
0AA	-tens.	0A	-tens.	0e	-tens.	0a	-tens.
!!LO:LB:i:g=z
=50||	=50||	=50||	=50||	=50||	=50||	=50||	=50||
*>C	*>C	*>C	*>C	*>C	*>C	*>C	*>C
*clefF4	*	*clefGv2	*	*clefGv2	*	*clefG2	*
*k[]	*	*k[]	*	*k[]	*	*k[]	*
*M2/1	*	*M2/1	*	*M2/1	*	*M2/1	*
*met(C)	*	*met(C)	*	*met(C)	*	*met(C)	*
!!section: Domine fili unigenite
!!!OMD: Domine fili unigenite
1.E	Do-	0r	.	0r	.	0r	.
2F\	-mi-	.	.	.	.	.	.
=51	=51	=51	=51	=51	=51	=51	=51
1G	-ne	0r	.	0r	.	1.e	Do-
1A	.	.	.	.	.	.	.
.	.	.	.	.	.	2f/	-mi-
=52	=52	=52	=52	=52	=52	=52	=52
2G\	Fi-	0r	.	0r	.	2g/	-ne
1F	.	.	.	.	.	1a	Fi-
4E\	.	.	.	.	.	4g/	.
4D\	.	.	.	.	.	4f/	.
=53	=53	=53	=53	=53	=53	=53	=53
0C	-li	1r	.	1G	Do-	1e	-li
.	.	1E	Do-	2A/	-mi-	1r	.
.	.	.	.	2c\	-ne	.	.
=54	=54	=54	=54	=54	=54	=54	=54
0r	.	1G	-mi-	2.B\	Fi-	0r	.
.	.	.	.	4A/	.	.	.
.	.	1G	-ne	1B	.	.	.
=55	=55	=55	=55	=55	=55	=55	=55
0r	.	0A	Fi-	1A	-li	2.c/	u-
.	.	.	.	.	.	4d/	-ni-
.	.	.	.	[1c	u-	4e/	-ge-
.	.	.	.	.	.	4f/	.
.	.	.	.	.	.	[2e/	.
=56	=56	=56	=56	=56	=56	=56	=56
0r	.	0G	.	2c\]	.	2e/]	.
.	.	.	.	4B\	.	4d/	-ni-
.	.	.	.	4A/	.	4c/	.
.	.	.	.	1B	-ni-	1d	-te,
=57	=57	=57	=57	=57	=57	=57	=57
1.C	Je-	1E	-li	2c\	-ge-	2r	.
.	.	.	.	1e	.	1c	Je-
.	.	1r	.	.	.	.	.
2D\	.	.	.	4d\	.	[2A/	-su
.	.	.	.	4c\	.	.	.
=58	=58	=58	=58	=58	=58	=58	=58
1E	-su	0r	.	1B	-ni-	2A/]	.
.	.	.	.	.	.	2G#i/	Chri-
1F	.	.	.	1A	-te,	1A	-ste,
=59	=59	=59	=59	=59	=59	=59	=59
2E\	Chri-	0B	Je-	1r	.	0r	.
1D	.	.	.	.	.	.	.
.	.	.	.	1D	Je-	.	.
4C/	.	.	.	.	.	.	.
4BB/	.	.	.	.	.	.	.
=60	=60	=60	=60	=60	=60	=60	=60
0AA	-ste,	0c	-su	1E	-su	0r	.
.	.	.	.	1F	Chri-	.	.
=61	=61	=61	=61	=61	=61	=61	=61
0GG	.	1B	Chri-	1G	-ste,	1.d	Do-
.	.	1G	-ste,	1r	.	.	.
.	.	.	.	.	.	2e/	-mi-
=62	=62	=62	=62	=62	=62	=62	=62
0r	.	0r	.	1D	Do-	1f	-ne
.	.	.	.	2.E/	-mi-	1g	De-
.	.	.	.	4F/	.	.	.
=63	=63	=63	=63	=63	=63	=63	=63
0r	.	0r	.	2G/	.	2d/	.
.	.	.	.	2D/	-ne	2f/	.
.	.	.	.	[1G	De-	2e/	.
.	.	.	.	.	.	[2d/	.
=64	=64	=64	=64	=64	=64	=64	=64
0r	.	0r	.	2G/]	.	2d/]	.
.	.	.	.	4F#i/	.	4c/	.
.	.	.	.	4E/	.	4B/	.
.	.	.	.	1F#i	.	1A	-us
=65	=65	=65	=65	=65	=65	=65	=65
1r	.	0r	.	1G	-us	4G/	a-
.	.	.	.	.	.	4A/	.
.	.	.	.	.	.	4B/	.
.	.	.	.	.	.	4c/	.
[1G	Do-	.	.	2r	.	2d/	.
.	.	.	.	[2C/	a-	[2e/	.
=66	=66	=66	=66	=66	=66	=66	=66
2G\]	.	0r	.	2C/]	.	2e/]	.
2A\	-mi-	.	.	2C/	-gnus	4d/	.
.	.	.	.	.	.	4c/	.
1B	-ne	.	.	1G	.	1d	-gnus
=67	=67	=67	=67	=67	=67	=67	=67
1c	De-	0r	.	2r	.	2.g/	De-
.	.	.	.	2c\	De-	.	.
.	.	.	.	.	.	4a/	.
2B\	.	.	.	2d\	.	2b\	.
[2A\	.	.	.	[2e\	.	[2cc\	.
=68	=68	=68	=68	=68	=68	=68	=68
2A\]	.	0r	.	2e\]	.	2cc\]	.
4G\	.	.	.	2A/	.	1a	.
4F\	.	.	.	.	.	.	.
1E	-us	.	.	1B	.	.	.
.	.	.	.	.	.	2g/	.
=69	=69	=69	=69	=69	=69	=69	=69
1r	.	[0c	Fi-	0A	-i,	2a/	.
.	.	.	.	.	.	4g/	.
.	.	.	.	.	.	4f/	.
2r	.	.	.	.	.	1e	-i,
[2A\	a-	.	.	.	.	.	.
=70	=70	=70	=70	=70	=70	=70	=70
2A\]	.	1c]	.	0r	.	0r	.
4G\	.	.	.	.	.	.	.
4F\	.	.	.	.	.	.	.
1E	-gnus	1c	-li-	.	.	.	.
=71	=71	=71	=71	=71	=71	=71	=71
1r	.	0d	-us	2r	.	0r	.
.	.	.	.	1D	Fi-	.	.
1BB	De-	.	.	.	.	.	.
.	.	.	.	[2G/	.	.	.
=72	=72	=72	=72	=72	=72	=72	=72
1C	-i,	1c	Pa-	2G/]	.	0r	.
.	.	.	.	4F/	.	.	.
.	.	.	.	4E/	.	.	.
1D	Fi-	1A	-tris.	2F/	.	.	.
.	.	.	.	4E/	-li-	.	.
.	.	.	.	4D/	.	.	.
=73	=73	=73	=73	=73	=73	=73	=73
1E	-li-	0r	.	1C	-us	1g	Fi-
2D\	-us	.	.	1r	.	2f/	.
[2C/	Pa-	.	.	.	.	[2e/	.
=74	=74	=74	=74	=74	=74	=74	=74
2C/]	.	0r	.	1c	Pa-	2e/]	.
4BB/	.	.	.	.	.	4d/	-li-
4AA/	.	.	.	.	.	4c/	.
1GG	-tris.	.	.	1d	.	1B	-us
=75	=75	=75	=75	=75	=75	=75	=75
0r	.	0A	Qui	2e\	.	4c/	Pa-
.	.	.	.	.	.	4d/	.
.	.	.	.	2.c\	.	4e/	.
.	.	.	.	.	.	4f/	.
.	.	.	.	.	.	2e/	.
.	.	.	.	4B\	.	.	.
.	.	.	.	4A/	.	[2a/	.
.	.	.	.	4G/	.	.	.
=76	=76	=76	=76	=76	=76	=76	=76
0r	.	0c	tol-	2F/	.	2a/]	.
.	.	.	.	2G/	.	4g/	.
.	.	.	.	.	.	4f/	.
.	.	.	.	1A	.	1e	.
=77	=77	=77	=77	=77	=77	=77	=77
1r	.	0d	-lis	1D	-tris.	1f	.
1D	Qui	.	.	1r	.	1d	-tris.
=78	=78	=78	=78	=78	=78	=78	=78
2C/	tol-	0r	.	2r	.	1r	.
2D\	.	.	.	1d	Qui	.	.
1E	.	.	.	.	.	2r	.
.	.	.	.	2c\	.	[2g/	Qui
=79	=79	=79	=79	=79	=79	=79	=79
1D	-lis	0r	.	1d	tol-	2g/]	.
.	.	.	.	.	.	2f/	.
1r	.	.	.	1e	.	1g	tol-
=80	=80	=80	=80	=80	=80	=80	=80
1r	.	2r	.	1d	-lis	1a	.
.	.	1d	pec-	.	.	.	.
1E	pec-	.	.	1r	.	1g	-lis
.	.	2c\	-ca-	.	.	.	.
=81	=81	=81	=81	=81	=81	=81	=81
2D\	.	1d	-ta	1r	.	0r	.
1D	-ca-	.	.	.	.	.	.
.	.	1e	mun-	1A	pec-	.	.
2C/	-ta	.	.	.	.	.	.
=82	=82	=82	=82	=82	=82	=82	=82
2D\	mun-	1d	-di,	2A/	-ca-	2r	.
2BB/	.	.	.	2G/	-ta	2d/	pec-
1AA	.	1r	.	2A/	mun-	[1c	-ca-
.	.	.	.	2F/	.	.	.
=83	=83	=83	=83	=83	=83	=83	=83
1AA	-di,	0r	.	2E/	-di,	2c/]	.
.	.	.	.	2e\	mi-	2c/	-ta
2r	.	.	.	2f\	-se-	2d/	mun-
[2A\	mun-	.	.	[2e\	-re-	2c/	.
=84	=84	=84	=84	=84	=84	=84	=84
2A\]	.	0r	.	2e\]	.	2A/	.
4G\	.	.	.	2A/	-re	1a	.
4F\	.	.	.	.	.	.	.
1E	.	.	.	1B	no-	.	.
.	.	.	.	.	.	2g/	.
=85	=85	=85	=85	=85	=85	=85	=85
2F\	.	2r	.	1A	-bis,	2a/	.
2D\	.	2d\	mi-	.	.	4g/	.
.	.	.	.	.	.	4f/	.
1A	-di,	2c\	-se-	1r	.	1e	-di,
.	.	2c\	-re-	.	.	.	.
=86	=86	=86	=86	=86	=86	=86	=86
2r	.	2d\	-re	0r	.	1r	.
1G	mun-	2B\	no-	.	.	.	.
.	.	1A	-bis,	.	.	2r	.
2F\	.	.	.	.	.	[2cc\	mi-
=87	=87	=87	=87	=87	=87	=87	=87
1G	-di,	0r	.	1d	mi-	2cc\]	.
.	.	.	.	.	.	2b\	-se-
2r	.	.	.	2c\	-se-	2cc\	-re-
[2c\	mi-	.	.	[2e\	-re-	4b\	.
.	.	.	.	.	.	4a/	.
=88	=88	=88	=88	=88	=88	=88	=88
2c\]	.	0r	.	2e\]	.	2g/	-re
2A\	-se-	.	.	2c\	-re	1a	no-
2B\	-re-	.	.	2d\	no-	.	.
2E\	.	.	.	2B\	.	2g/	.
=89	=89	=89	=89	=89	=89	=89	=89
2F\	.	2r	.	2.A/	.	2a/	.
2D\	.	2A/	mi-	.	.	4g/	.
.	.	.	.	4B\	.	4f/	.
2C/	.	1A	-se-	2c\	.	2e/	-bis,
2D\	.	.	.	2F/	-bis,	2f/	no-
=90	=90	=90	=90	=90	=90	=90	=90
1BB	.	1G	-re-	2r	.	4g/	.
.	.	.	.	.	.	4f/	.
.	.	.	.	2D/	no-	4e/	.
.	.	.	.	.	.	4d/	.
1AA	.	1A	.	1E	-bis,	2.c/	.
.	.	.	.	.	.	4d/	.
=91	=91	=91	=91	=91	=91	=91	=91
1C	-re	1G	-re	2r	.	4e/	.
.	.	.	.	.	.	4d/	.
.	.	.	.	2.e\	no-	2.g/	.
1r	.	2E/	no-	.	.	.	.
.	.	.	.	4d\	.	4f/	.
.	.	2G/	.	4B\	.	4d/	.
.	.	.	.	4c\	.	4e/	.
=92	=92	=92	=92	=92	=92	=92	=92
1r	.	2D/	.	2d\	.	2f/	.
.	.	2E/	.	1B	.	1e	.
1D	no-	1F	.	.	.	.	.
.	.	.	.	2A/	.	2d/	.
=93	=93	=93	=93	=93	=93	=93	=93
0G	.	[0El	-bis,	[0Bl	-bis,	[0el	-bis,
=94	=94	=94	=94	=94	=94	=94	=94
0El	-bis,	0E]	.	0B]	.	0e]	.
!!LO:LB:i:g=z
=95||	=95||	=95||	=95||	=95||	=95||	=95||	=95||
*>D	*>D	*>D	*>D	*>D	*>D	*>D	*>D
*clefF4	*	*clefGv2	*	*clefGv2	*	*clefG2	*
*k[]	*	*k[]	*	*k[]	*	*k[]	*
*M2/1	*	*M2/1	*	*M2/1	*	*M2/1	*
*met(C)	*	*met(C)	*	*met(C)	*	*met(C)	*
!!section: Qui tollis peccata mundi, suscipe deprecationem nostram
!!!OMD: Qui tollis peccata mundi, suscipe deprecationem nostram
0AA	Qui	0r	.	0r	.	0e	Qui
=96	=96	=96	=96	=96	=96	=96	=96
0E	.	0r	.	0B	Qui	0g	tol-
=97	=97	=97	=97	=97	=97	=97	=97
1.D	tol-	0A	Qui	0d	.	0a	-lis
2C/	.	.	.	.	.	.	.
=98	=98	=98	=98	=98	=98	=98	=98
1AA	-lis	0c	tol-	1.e	tol-	0r	.
[1A	pec-	.	.	.	.	.	.
.	.	.	.	4d\	.	.	.
.	.	.	.	4c\	.	.	.
=99	=99	=99	=99	=99	=99	=99	=99
2A\]	.	1d	-lis	0B	-lis	0r	.
4G#\	.	.	.	.	.	.	.
4F#i\	.	.	.	.	.	.	.
1G#i	.	1d	pec-	.	.	.	.
=100	=100	=100	=100	=100	=100	=100	=100
1A	-ca-	1c	-ca-	1e	pec-	1a	pec-
1B	-ta	1d	-ta	1d	-ca-	1g	.
=101	=101	=101	=101	=101	=101	=101	=101
0A	mun-	0e	mun-	1.c	-ta	2cc\	-ca-
.	.	.	.	.	.	2b\	-ta
.	.	.	.	.	.	2a/	mun-
.	.	.	.	2B\	mun-	2g/	.
=102	=102	=102	=102	=102	=102	=102	=102
0D	-di,	0d	-di,	0A	-di,	0f	-di,
=103	=103	=103	=103	=103	=103	=103	=103
1r	.	1r	.	1r	.	1r	.
[1GG	su-	[1d	su-	[1G	su-	[1b-i	su-
=104	=104	=104	=104	=104	=104	=104	=104
1GG]	.	1d]	.	1G]	.	1b-]	.
1GG	-sci-	1d	-sci-	1G	-sci-	1b-i	-sci-
=105	=105	=105	=105	=105	=105	=105	=105
0D	-pe	0d	-pe	0F#	-pe	0a	-pe
=106	=106	=106	=106	=106	=106	=106	=106
1r	.	1r	.	1r	.	1r	.
1D	de-	1D	de-	1F#	de-	1A	de-
=107	=107	=107	=107	=107	=107	=107	=107
1GG	-pre-	1D	-pre-	1G	-pre-	1B	.
1GG	-ca-	1D	-ca-	1G	-ca-	1B	-pre-
=108	=108	=108	=108	=108	=108	=108	=108
1C	-ti-	1E	-ti-	1G	-ti-	1c	-ca-
1AA	-o-	1F	-o-	1A	-o-	1c	-ti-
=109	=109	=109	=109	=109	=109	=109	=109
1GG	-nem	0G	-nem	1D	.	1.B	-o-
2r	.	.	.	1E	.	.	.
2GG/	no-	.	.	.	.	4A/	.
.	.	.	.	.	.	4G/	.
=110	=110	=110	=110	=110	=110	=110	=110
2AA/	.	0E	no-	2C/	-nem	2c/	.
2GG/	.	.	.	1G	no-	2B/	-nem
1C	.	.	.	.	.	[1e	no-
.	.	.	.	2c\	.	.	.
=111	=111	=111	=111	=111	=111	=111	=111
0D	.	0F	.	2A/	.	2e/]	.
.	.	.	.	1A	-stram.	4d/	.
.	.	.	.	.	.	4c/	.
.	.	.	.	.	.	1d	.
.	.	.	.	[2A/	Qui	.	.
=112	=112	=112	=112	=112	=112	=112	=112
1AA	-stram.	0E	-stram.	2A/]	.	0e	-stram.
.	.	.	.	2.c\	se-	.	.
2r	.	.	.	.	.	.	.
.	.	.	.	4B\	.	.	.
2AA/	Qui	.	.	2A/	.	.	.
=113	=113	=113	=113	=113	=113	=113	=113
2.C/	se-	2.E/	Qui	1G	.	0r	.
4D\	.	4F/	.	.	.	.	.
2E\	.	2G/	.	1c	.	.	.
2AA/	.	[2A/	se-	.	.	.	.
=114	=114	=114	=114	=114	=114	=114	=114
1E	-des	2A/]	.	1B	.	0r	.
.	.	2G#i/	.	.	.	.	.
2r	.	1A	-des	2A/	-des	.	.
2AA/	ad	.	.	[2c\	Qui	.	.
=115	=115	=115	=115	=115	=115	=115	=115
2.C/	dex-	0r	.	4c\]	.	2.e/	Qui
.	.	.	.	4B\	.	.	.
.	.	.	.	1G	.	.	.
4D\	.	.	.	.	.	4f/	.
2E\	.	.	.	.	.	2g/	.
2AA/	-te-	.	.	2c\	.	[2a/	se-
=116	=116	=116	=116	=116	=116	=116	=116
1E	-ram	1r	.	1B	.	2a/]	.
.	.	.	.	.	.	2g#i/	.
2r	.	2r	.	2.A/	se-	1a	-des
2AA/	Pa-	2A/	ad	.	.	.	.
.	.	.	.	4G/	.	.	.
=117	=117	=117	=117	=117	=117	=117	=117
2.C/	.	1A	dex-	2E/	.	0r	.
.	.	.	.	2F/	.	.	.
4D\	.	.	.	.	.	.	.
2E\	.	2G/	-te-	2E/	-des	.	.
2AA/	.	[2c\	-ram	2A/	ad	.	.
=118	=118	=118	=118	=118	=118	=118	=118
1E	-tris,	2c\]	.	2E/	.	1g	ad
.	.	2B\	.	2G/	.	.	.
2r	.	2.c\	Pa-	2F/	dex-	2a/	dex-
2AA/	mi-	.	.	[2A/	.	[2cc\	.
.	.	4d\	.	.	.	.	.
=119	=119	=119	=119	=119	=119	=119	=119
2.C/	.	2.e\	.	4A/]	.	2cc\]	.
.	.	.	.	4G/	-te-	.	.
.	.	.	.	1E	-ram	4b\	-te-
4D\	-se-	4d\	.	.	.	4a/	.
2E\	-re-	2B\	.	.	.	2g/	-ram
2AA/	.	2c\	.	[2e\	Pa-	[2a/	Pa-
=120	=120	=120	=120	=120	=120	=120	=120
1E	-re	1B	-tris,	2e\]	.	2a/]	.
.	.	.	.	2e\	-tris,	2g#i/	.
2r	.	2r	.	2.c\	mi-	1a	-tris,
2AA/	no-	2A/	mi-	.	.	.	.
.	.	.	.	4d\	.	.	.
=121	=121	=121	=121	=121	=121	=121	=121
2.C/	.	2G/	-se-	2e\	.	0r	.
.	.	2A/	-re-	2A/	-se-	.	.
4D\	.	.	.	.	.	.	.
2E\	.	2G/	-re	1c	-re-	.	.
2AA/	.	[2A/	no-	.	.	.	.
=122	=122	=122	=122	=122	=122	=122	=122
1E	-bis.	2A/]	.	1B	.	1r	.
.	.	2G/	.	.	.	.	.
2r	.	2.A/	.	2A/	-re	2r	.
2AA/	Quo-	.	.	[2e\	no-	2a/	mi-
.	.	4G/	.	.	.	.	.
=123	=123	=123	=123	=123	=123	=123	=123
2.C/	.	1E	-bis.	4e\]	.	2g/	-se-
.	.	.	.	4d\	.	.	.
.	.	.	.	2c\	.	2a/	-re-
4D\	.	.	.	.	.	.	.
2E\	.	1r	.	2B\	.	2g/	-re
2AA/	-ni-	.	.	2A/	.	[2a/	no-
=124	=124	=124	=124	=124	=124	=124	=124
1E	-am	0r	.	1B	.	2a/]	.
.	.	.	.	.	.	2g/	.
2r	.	.	.	2A/	.	2.a/	.
2AA/	tu	.	.	[2c\	.	.	.
.	.	.	.	.	.	4g/	.
=125	=125	=125	=125	=125	=125	=125	=125
2.C/	so-	2r	.	4c\]	.	1e	-bis.
.	.	.	.	4B\	.	.	.
.	.	2E/	Quo-	1G	-bis.	.	.
4D\	.	.	.	.	.	.	.
2E\	.	2G/	-ni-	.	.	1r	.
2AA/	.	[2A/	-am	2c\	Quo-	.	.
=126	=126	=126	=126	=126	=126	=126	=126
1E	-lus	2A/]	.	1B	.	0r	.
.	.	2G/	tu	.	.	.	.
2r	.	2A/	so-	1A	-ni-	.	.
2AA/	sanc-	2A/	-lus	.	.	.	.
=127	=127	=127	=127	=127	=127	=127	=127
2.C/	.	2G/	sanc-	2G/	-am	1e	Quo-
.	.	2E/	-tus,	1c	.	.	.
4D\	.	.	.	.	.	.	.
1E	.	1r	.	.	.	1g	-ni-
.	.	.	.	2B\	.	.	.
=128	=128	=128	=128	=128	=128	=128	=128
1AA	-tus,	0r	.	2r	.	2a/	-am
.	.	.	.	1c	tu	2a/	tu
1r	.	.	.	.	.	2g/	so-
.	.	.	.	[2f\	so-	[2a/	.
=129	=129	=129	=129	=129	=129	=129	=129
0r	.	0r	.	4f\]	.	4a/]	.
.	.	.	.	4e\	.	4g/	.
.	.	.	.	4d\	-lus	4f/	-lus
.	.	.	.	4c\	.	4e/	.
.	.	.	.	1d	sanc-	1f	sanc-
=130	=130	=130	=130	=130	=130	=130	=130
2.C/	tu	1G	tu	1e	-tus,	1e	-tus,
4BB/	.	.	.	.	.	.	.
4C/	so-	2A/	so-	1r	.	1r	.
4D\	-lus	.	.	.	.	.	.
[2E\	Do-	2G/	-lus	.	.	.	.
=131	=131	=131	=131	=131	=131	=131	=131
2E\]	.	2A/	Do-	1r	.	1r	.
2D\	-mi-	2F/	-mi-	.	.	.	.
1E	-nus,	1E	-nus,	2r	.	1g	tu
.	.	.	.	[2c\	tu	.	.
=132	=132	=132	=132	=132	=132	=132	=132
0r	.	0r	.	4c\]	.	2a/	so-
.	.	.	.	4d\	so-	.	.
.	.	.	.	2e\	-lus	2g/	-lus
.	.	.	.	2c\	Do-	2a/	Do-
.	.	.	.	[2d\	.	2f/	-mi-
=133	=133	=133	=133	=133	=133	=133	=133
1r	.	1r	.	2d\]	.	1e	-nus,
.	.	.	.	2c#i\	-mi-	.	.
1G	tu	1B	tu	1d	-nus,	1r	.
=134	=134	=134	=134	=134	=134	=134	=134
2.G\	so-	0B	so-	0r	.	0r	.
4F\	.	.	.	.	.	.	.
2E\	.	.	.	.	.	.	.
2D\	.	.	.	.	.	.	.
=135	=135	=135	=135	=135	=135	=135	=135
1C	-lus	1c	-lus	2.e\	tu	1g	tu
.	.	.	.	4d\	.	.	.
1r	.	1r	.	2c\	.	1g	so-
.	.	.	.	2B\	.	.	.
=136	=136	=136	=136	=136	=136	=136	=136
0r	.	0r	.	1c	so-	2.a/	-lus
.	.	.	.	.	.	4g/	.
.	.	.	.	1A	-lus	2f/	.
.	.	.	.	.	.	2e/	.
=137	=137	=137	=137	=137	=137	=137	=137
0GG	Al-	1r	.	1B	Al-	1d	Al-
.	.	1G	Al-	1d	.	2.g/	-tis-
.	.	.	.	.	.	4f/	.
=138	=138	=138	=138	=138	=138	=138	=138
1C	-tis-	1G	-tis-	1G	-tis-	2e/	.
.	.	.	.	.	.	2c/	.
1BB	-si-	1G	-si-	1D	-si-	1d	-si-
=139	=139	=139	=139	=139	=139	=139	=139
0AA	-mus,	0A;	-mus,	0E;	-mus,	0c;	-mus,
=140	=140	=140	=140	=140	=140	=140	=140
0AA;	Je-	0A;	Je-	0c;	Je-	0e;	Je-
=141	=141	=141	=141	=141	=141	=141	=141
0D;	-su	0A;	-su	0d;	-su	0f;	-su
=142	=142	=142	=142	=142	=142	=142	=142
0AA;	Chri-	0A;	Chri-	0c;	Chri-	0e;	Chri-
=143	=143	=143	=143	=143	=143	=143	=143
0El	-ste.	0Gl	-ste.	0Bl	-ste.	0el	-ste.
!!LO:LB:i:g=z
=144||	=144||	=144||	=144||	=144||	=144||	=144||	=144||
*>E	*>E	*>E	*>E	*>E	*>E	*>E	*>E
*clefF4	*	*clefGv2	*	*clefGv2	*	*clefG2	*
*k[]	*	*k[]	*	*k[]	*	*k[]	*
*M3/1	*	*M3/1	*	*M3/1	*	*M3/1	*
*met(C|3)	*	*met(C|3)	*	*met(C|3)	*	*met(C|3)	*
!!section: Cum sancto spiritu
!!!OMD: Cum sancto spiritu
!	!	!	!	!	!	!LO:TX:X=-40:Z=8:t=(Circle-Over-3 in Vienna and Petrucci)	!
0C	Cum	0.r	.	1E	Cum	0e	Cum
.	.	.	.	1.G	sanc-	.	.
1C	sanc-	.	.	.	.	1e	sanc-
.	.	.	.	2E/	.	.	.
=145	=145	=145	=145	=145	=145	=145	=145
1AA	-to	0.r	.	1.A	.	1e	-to
0BB	Spi-	.	.	.	.	0d	.
.	.	.	.	4G#i/	.	.	.
.	.	.	.	4F#i/	.	.	.
.	.	.	.	1G#i	.	.	.
=146	=146	=146	=146	=146	=146	=146	=146
1AA	-ri-	0E	Cum	0A	-to	1.c	Spi-
1AA	-tu,	.	.	.	.	.	.
.	.	.	.	.	.	2d/	.
1r	.	1G	sanc-	1G	Spi-	1e	.
=147	=147	=147	=147	=147	=147	=147	=147
0.r	.	1A	-to	1F	.	1f	.
.	.	0B	Spi-	0E	-ri-	1.g	.
.	.	.	.	.	.	2f/	.
=148	=148	=148	=148	=148	=148	=148	=148
1r	.	1A	-ri-	0e	-tu,	1a	.
1r	.	1A	-tu,	.	.	0cc	.
1A	in	1r	.	1e	in	.	.
=149	=149	=149	=149	=149	=149	=149	=149
1A	glo-	0.r	.	1e	glo-	1a	.
0G	-ri-	.	.	0e	-ri-	0b	-ri-
=150	=150	=150	=150	=150	=150	=150	=150
1.F	-a	0c	in	0f	-a	1a	-tu,
.	.	.	.	.	.	1r	.
2G\	.	.	.	.	.	.	.
1A	.	1c	glo-	1F	De-	1r	.
=151	=151	=151	=151	=151	=151	=151	=151
1F	De-	1c	-ri-	1.A	.	0.r	.
0E	.	1.c	-a	.	.	.	.
.	.	.	.	4G/	.	.	.
.	.	.	.	4F/	.	.	.
.	.	.	.	1G	.	.	.
.	.	2B\	.	.	.	.	.
=152	=152	=152	=152	=152	=152	=152	=152
1D	-i	0.d	.	0.A	.	0f	in
1r	.	.	.	.	.	.	.
1r	.	.	.	.	.	1f	glo-
=153	=153	=153	=153	=153	=153	=153	=153
1.d	in	0.r	.	0.D	-i	1f	-ri-
.	.	.	.	.	.	1.f	-a
2c\	.	.	.	.	.	.	.
1A	.	.	.	.	.	.	.
.	.	.	.	.	.	2e/	.
=154	=154	=154	=154	=154	=154	=154	=154
1.G	glo-	0.r	.	1B	in	0g	De-
.	.	.	.	1B	glo-	.	.
2F\	.	.	.	.	.	.	.
1D	.	.	.	1B	-ri-	1f	-i
=155	=155	=155	=155	=155	=155	=155	=155
1C	.	1G	in	1c	-a	1e	Pa-
0BB	-ri-	1G	glo-	1d	De-	0d	.
.	.	1G	-ri-	1B	.	.	.
=156	=156	=156	=156	=156	=156	=156	=156
1.AA	-a	0.A	-a	0e	-i	1.c	.
2BB/	.	.	.	.	.	2d/	.
1C	.	.	.	1r	.	1e	.
=157	=157	=157	=157	=157	=157	=157	=157
1AA	De-	0A	De-	0.r	.	1c	.
0E	-i	.	.	.	.	0B	.
.	.	1G#i	.	.	.	.	.
=158	=158	=158	=158	=158	=158	=158	=158
1.AA	Pa-	0A	.	1.c	De-	1A	-tris.
.	.	.	.	.	.	1r	.
2BB/	.	.	.	2d\	.	.	.
1C	.	1G	.	1e	-i	1r	.
=159	=159	=159	=159	=159	=159	=159	=159
1D	-tris.	1F	.	1A	Pa-	0a	De-
1r	.	0D	-i	1.f	.	.	.
1r	.	.	.	.	.	1a	-i
.	.	.	.	2e\	.	.	.
=160	=160	=160	=160	=160	=160	=160	=160
0.r	.	1E	Pa-	0e	.	1g	Pa-
.	.	0F	.	.	.	1.cc	.
.	.	.	.	1d	.	.	.
.	.	.	.	.	.	4b\	.
.	.	.	.	.	.	4a/	.
=161	=161	=161	=161	=161	=161	=161	=161
1r	.	0E	-tris.	1.e	.	1g	-tris.
1E	A-	.	.	.	.	1r	.
.	.	.	.	2d\	.	.	.
1F	.	1r	.	1c	.	1r	.
=162	=162	=162	=162	=162	=162	=162	=162
1.G	.	0E	A-	1.B	.	0.r	.
2F\	.	.	.	2G/	.	.	.
1D	.	1F	.	2A/	.	.	.
.	.	.	.	2B\	.	.	.
=163	=163	=163	=163	=163	=163	=163	=163
0C	.	1.G	.	1c	-tris.	0e	A-
.	.	.	.	1r	.	.	.
.	.	2F/	.	.	.	.	.
1D	.	1D	.	1r	.	1f	.
=164	=164	=164	=164	=164	=164	=164	=164
1E	-men.	1C	-men.	0G	A-	0g	.
1r	.	1E	A-	.	.	.	.
1r	.	1F	.	[1A	.	1c	-men.
=165	=165	=165	=165	=165	=165	=165	=165
0.r	.	1D	.	1A]	.	1f	A-
.	.	1.A	.	0c	.	1e	.
.	.	.	.	.	.	[1a	.
.	.	2B\	.	.	.	.	.
=166	=166	=166	=166	=166	=166	=166	=166
1A	A-	1c	.	0e	.	1a]	.
0c	.	0e	.	.	.	1g	.
.	.	.	.	1c	.	1cc	.
=167	=167	=167	=167	=167	=167	=167	=167
1G	-men.	1d	.	0g	-men.	1b	.
1G	A-	0B	.	.	.	0dd	.
1D	.	.	.	1r	.	.	.
=168	=168	=168	=168	=168	=168	=168	=168
1F	.	1A	.	1f	A-	1cc	.
1.G	.	0d	-men.	1d	-men.	1.b	.
.	.	.	.	2d\	A-	.	.
2D\	.	.	.	[2f\	.	2a/	.
=169	=169	=169	=169	=169	=169	=169	=169
1.F	.	1c	A-	2f\]	.	1.a	.
.	.	.	.	2e\	.	.	.
.	.	0A	.	2d\	.	.	.
2E\	.	.	.	2c\	.	2g/	.
2D\	.	.	.	1d	.	2f/	.
2C/	.	.	.	.	.	2e/	.
=170	=170	=170	=170	=170	=170	=170	=170
1E	.	1G	.	1c	.	1g	.
0D	.	0A	.	0d	.	1.f	.
.	.	.	.	.	.	2e/	.
=171	=171	=171	=171	=171	=171	=171	=171
1C	.	1E	.	1e	-men.	1.e	.
1D	-men.	0F	.	1.A	A-	.	.
.	.	.	.	.	.	2d/	.
1r	.	.	.	.	.	2d/	.
.	.	.	.	2G/	.	2c/	.
=172	=172	=172	=172	=172	=172	=172	=172
0AA	A-	[0.El	-men.	1A	.	[0.el	-men.
.	.	.	.	1c	.	.	.
1GG	.	.	.	[1Bl	-men.	.	.
=173	=173	=173	=173	=173	=173	=173	=173
0.EEl	-men.	0.E]	.	0.B]	.	0.e]	.
==	==	==	==	==	==	==	==
*-	*-	*-	*-	*-	*-	*-	*-
!!!RDF**kern: l=long note in original notation
!!!RDF**kern: i=editorial accidental
!!!ENC:	Jesse Rodin 8/9/2013
!!!END:	2013/08/09/
!!!EED:	Jesse Rodin
!!!EEV:	2013/08/10/
!!!ONB:	Translated from MusicXML and edited on 2013/08/10/ by Craig Sapp
!!muse2ps: T^@{OPR}^u^@{ONM}{. }@{OTL}^C^@{COM}^i2I150v85,85,85,150Q16
